public/icons/call-me-back-sm.svg

<svg role="img" width="24" height="24" viewBox="0 0 24 24" fill="none" xmlns="http://www.w3.org/2000/svg">
<path fill-rule="evenodd" clip-rule="evenodd" d="M11.9836 1.56934C11.7074 1.56934 11.4836 1.79319 11.4836 2.06934V9.31273C11.4836 9.58887 11.7074 9.81273 11.9836 9.81273H13.9871V11.8162C13.9871 12.0184 14.1089 12.2008 14.2957 12.2781C14.4826 12.3555 14.6976 12.3128 14.8406 12.1698L17.1976 9.81273H22.3647C22.6408 9.81273 22.8647 9.58887 22.8647 9.31273V2.06934C22.8647 1.79319 22.6408 1.56934 22.3647 1.56934H11.9836ZM12.4836 8.81273V2.56934H21.8647V8.81273H16.9905C16.8579 8.81273 16.7308 8.86541 16.637 8.95918L14.9871 10.6091V9.31273C14.9871 9.03659 14.7632 8.81273 14.4871 8.81273H12.4836ZM6.73999 4.46493C5.97168 3.78702 4.80037 3.83353 4.08125 4.59141L3.71905 4.95361L2.38386 6.2888L2.21696 6.4557L2.57051 6.80925L2.21696 6.4557L2.11682 6.55584C2.10009 6.57257 2.08457 6.59047 2.07037 6.60939C1.00739 8.02671 1.19383 9.99282 1.978 11.9211C2.77243 13.8746 4.23448 15.9394 5.98716 17.7091L5.98706 17.7092L5.99586 17.7177C7.76361 19.4174 9.82619 20.869 11.7768 21.6709C13.6998 22.4614 15.6665 22.6773 17.0867 21.632C17.1069 21.617 17.126 21.6006 17.1438 21.5828L17.244 21.4827L17.4109 21.3158L18.746 19.9806L19.1132 19.6134C19.894 18.8327 20.0034 17.5754 19.1751 16.9024C19.1582 16.8887 19.1404 16.8761 19.1219 16.8646L16.1199 15.0173C15.7121 14.668 15.2235 14.5107 14.7292 14.5561C14.2289 14.6021 13.764 14.8513 13.3946 15.2391L12.2954 16.3383C12.2219 16.3623 12.1076 16.3737 11.9341 16.3436C11.7153 16.3056 11.4444 16.2082 11.1298 16.048C10.5049 15.7298 9.78557 15.2043 9.08846 14.5895C8.45144 13.9506 7.90805 13.2377 7.58966 12.6085C7.42924 12.2915 7.33691 12.0171 7.30731 11.7982C7.28203 11.6113 7.30581 11.4957 7.34076 11.4248L8.4651 10.3005C8.85019 9.9154 9.09095 9.45036 9.13145 8.95274C9.17132 8.46296 9.01299 7.98781 8.68601 7.58568L6.83501 4.5778C6.80909 4.53569 6.77707 4.49765 6.73999 4.46493ZM4.80388 5.28267C5.13731 4.9284 5.66259 4.89548 6.02679 5.17249L7.85261 8.13945C7.86557 8.1605 7.88006 8.18057 7.89599 8.19947C8.08609 8.42522 8.15229 8.6561 8.13475 8.87161C8.11684 9.09165 8.0071 9.34428 7.75799 9.59339L6.5897 10.7617C6.56642 10.785 6.54549 10.8105 6.52723 10.8379C6.30421 11.1724 6.26661 11.5646 6.31633 11.9322C6.36601 12.2996 6.50733 12.6844 6.6974 13.06C7.07818 13.8125 7.69872 14.614 8.3922 15.3075C8.39947 15.3147 8.40696 15.3218 8.41466 15.3286C9.14926 15.9777 9.94417 16.5664 10.676 16.9391C11.0415 17.1252 11.4111 17.2677 11.7629 17.3288C12.1133 17.3897 12.4892 17.3766 12.8226 17.1961C12.865 17.1731 12.9039 17.1441 12.938 17.11L14.1063 15.9417L14.1064 15.9418L14.1157 15.932C14.3464 15.6885 14.5973 15.5725 14.8207 15.5519C15.0379 15.532 15.2694 15.5975 15.4889 15.7938C15.511 15.8137 15.5349 15.8315 15.5602 15.847L18.5644 17.6958C18.7901 17.904 18.8801 18.4324 18.4061 18.9063L18.0389 19.2735L16.7037 20.6087L16.5368 20.7756L16.4647 20.8477C15.4807 21.5493 13.9712 21.4918 12.157 20.746C10.3539 20.0047 8.39609 18.6374 6.69337 17.0011C5.00991 15.3003 3.6364 13.3446 2.90433 11.5444C2.1682 9.73423 2.13148 8.22334 2.85024 7.23664L2.92407 7.16281L3.09097 6.99591L4.42615 5.66072L4.79333 5.29354L4.80388 5.28267ZM15.4552 5.64096C15.4552 5.99123 15.1713 6.27518 14.821 6.27518C14.4707 6.27518 14.1868 5.99123 14.1868 5.64096C14.1868 5.2907 14.4707 5.00675 14.821 5.00675C15.1713 5.00675 15.4552 5.2907 15.4552 5.64096ZM17.1575 6.27518C17.5078 6.27518 17.7918 5.99123 17.7918 5.64096C17.7918 5.2907 17.5078 5.00675 17.1575 5.00675C16.8073 5.00675 16.5233 5.2907 16.5233 5.64096C16.5233 5.99123 16.8073 6.27518 17.1575 6.27518ZM20.1951 5.64096C20.1951 5.99123 19.9112 6.27518 19.5609 6.27518C19.2107 6.27518 18.9267 5.99123 18.9267 5.64096C18.9267 5.2907 19.2107 5.00675 19.5609 5.00675C19.9112 5.00675 20.1951 5.2907 20.1951 5.64096Z" fill="currentColor"/>
</svg>

<svg xmlns="http://www.w3.org/2000/svg" width="24" height="24" fill="none" viewBox="0 0 24 24">
  <path fill="currentColor" fill-rule="evenodd" d="M11.9832 1.5696a.5.5 0 0 0-.5.5V9.313a.5.5 0 0 0 .5.5h2.0035v2.0034a.5.5 0 0 0 .8536.3536l2.357-2.357h5.167a.5.5 0 0 0 .5-.5V2.0695a.5.5 0 0 0-.5-.5H11.9832Zm.5 7.2434V2.5695h9.3811V8.813h-4.8741a.5002.5002 0 0 0-.3536.1464l-1.6499 1.6499V9.313a.5.5 0 0 0-.5-.5h-2.0035ZM6.7396 4.465c-.7683-.6779-1.9396-.6314-2.6587.1265l-.3622.3622L2.3835 6.289l-.167.167.3537.3535-.3536-.3536-.1002.1002a.4991.4991 0 0 0-.0464.0535c-1.063 1.4173-.8765 3.3834-.0924 5.3117.7945 1.9535 2.2565 4.0183 4.0092 5.788l-.0001.0001.0088.0085c1.7678 1.6997 3.8303 3.1513 5.7809 3.9532 1.923.7906 3.8898 1.0064 5.3099-.0389a.487.487 0 0 0 .0571-.0492l.1002-.1001.1669-.1669 1.3352-1.3352.3672-.3672c.7807-.7807.8901-2.038.0618-2.711a.5064.5064 0 0 0-.0532-.0377l-3.002-1.8474c-.4077-.3493-.8963-.5066-1.3907-.4611-.5003.046-.9652.2951-1.3345.6829l-1.0992 1.0992c-.0736.024-.1879.0354-.3614.0053-.2187-.038-.4897-.1354-.8043-.2956-.6249-.3182-1.3442-.8437-2.0413-1.4585-.637-.6389-1.1804-1.3518-1.4988-1.981-.1604-.317-.2527-.5914-.2824-.8103-.0252-.1869-.0015-.3025.0335-.3734l1.1243-1.1243c.3851-.385.6259-.8501.6664-1.3478.0398-.4897-.1185-.9649-.4455-1.367L6.8346 4.578a.4998.4998 0 0 0-.095-.1128Zm-1.936.8178c.3333-.3543.8586-.3872 1.2228-.1102l1.8258 2.967a.5.5 0 0 0 .0434.06c.1901.2257.2563.4566.2388.6721-.018.22-.1277.4727-.3768.7218L6.5893 10.762a.5011.5011 0 0 0-.0624.0762c-.223.3345-.2607.7267-.211 1.0944.0497.3673.191.7522.3811 1.1278.3808.7525 1.0013 1.5539 1.6948 2.2474a.5338.5338 0 0 0 .0225.0211c.7346.6492 1.5295 1.2378 2.2614 1.6105.3655.1861.735.3286 1.0869.3897.3503.0609.7262.0479 1.0596-.1327a.5012.5012 0 0 0 .1154-.0861l1.1683-1.1683.0001.0001.0093-.0098c.2307-.2435.4816-.3595.7051-.38.2171-.02.4487.0455.6681.2419a.5006.5006 0 0 0 .0713.0532l3.0042 1.8487c.2257.2083.3157.7366-.1583 1.2105l-.3671.3672-1.3352 1.3352-.1669.1669-.0722.0721c-.984.7016-2.4935.6441-4.3077-.1017-1.803-.7413-3.7609-2.1086-5.4636-3.7449-1.6835-1.7008-3.057-3.6565-3.789-5.4567-.7362-1.8102-.7729-3.321-.0541-4.3078l.0738-.0738.1669-.1669L4.4258 5.661l.3672-.3671.0105-.011Zm10.6512.3583a.6342.6342 0 1 1-1.2684 0 .6342.6342 0 0 1 1.2684 0Zm1.7024.6342a.6342.6342 0 1 0 0-1.2684.6342.6342 0 0 0 0 1.2684Zm3.0376-.6342a.6342.6342 0 1 1-1.2685 0 .6342.6342 0 0 1 1.2685 0Z" clip-rule="evenodd"/>
</svg>
